X:1
T:Wals
C:Bert Van Vreckem 2003-03-31
Z:Bert Van Vreckem <bert.vanvreckem@gmail.com>
M:3/4
L:1/4
K:Gm
d|"Gm"G/A/ B/c/ d/e/|d>cB|"Dm"cBA|"Gm"B>cd|"Cm"e>fe|"Gm"dcB|"Cm"c/d/cB|"Dm"A2 d|
"Gm"G/A/ B/c/ d/e/|d>cB|"Dm"cBA|"Gm"B>cd|"Cm"e>fg|"Gm"d>cB|"Dm"c/B/A^F|[1"Gm"G2:|[2"Gm"G2||
|:"F"A>Bc|cde|"Bb"f>ed|def|"Eb"g>ab|"Dm"a>g^f|"Gm"g>dB|G3|
"F"A>Bc|cde|"Bb"f>ed|gdB| "Cm"c>BA|"Dm"G^F|"Gm"G>DB,/A,/|G,3:|
